img/pay_wrapper-sistem2.svg

<svg width="51" height="20" viewBox="0 0 51 20" fill="none" xmlns="http://www.w3.org/2000/svg">
<g clip-path="url(#clip0_2342_62039)">
<path d="M24.0142 9.77064V15.6333H22.1543V1.15515H27.087C27.6758 1.14285 28.2612 1.24727 28.8094 1.4624C29.3576 1.67753 29.8578 1.99909 30.2811 2.40854C30.7087 2.79313 31.049 3.26479 31.2791 3.79182C31.5093 4.31884 31.6239 4.88903 31.6154 5.46405C31.6276 6.04214 31.5147 6.61605 31.2844 7.14644C31.0541 7.67682 30.7119 8.15114 30.2811 8.53688C29.4186 9.35939 28.3539 9.77025 27.087 9.76948H24.0142V9.77064ZM24.0142 2.93762V7.99163H27.1332C27.4752 8.00177 27.8154 7.94042 28.1323 7.81152C28.4492 7.68262 28.7357 7.48901 28.9735 7.24306C29.21 7.0131 29.398 6.73805 29.5264 6.43417C29.6548 6.13029 29.7209 5.80375 29.7209 5.47387C29.7209 5.14398 29.6548 4.81744 29.5264 4.51356C29.398 4.20968 29.21 3.93463 28.9735 3.70468C28.7387 3.45354 28.4532 3.25518 28.1359 3.12274C27.8187 2.9903 27.4769 2.92681 27.1332 2.93647H24.0142V2.93762Z" fill="#5F6368"/>
<path d="M35.901 5.40405C37.2756 5.40405 38.3608 5.77141 39.1563 6.50611C39.9519 7.24082 40.3493 8.24816 40.3485 9.52812V15.6334H38.5695V14.2587H38.4886C37.7185 15.3908 36.6942 15.9568 35.4158 15.9568C34.3245 15.9568 33.4115 15.6334 32.6768 14.9864C32.3242 14.6895 32.0423 14.3177 31.8517 13.898C31.661 13.4783 31.5664 13.0214 31.5747 12.5605C31.5747 11.5355 31.9621 10.7203 32.7369 10.115C33.5116 9.50964 34.5459 9.2062 35.8397 9.20466C36.9441 9.20466 37.8536 9.40682 38.5683 9.81115V9.38603C38.5704 9.07184 38.5026 8.76111 38.3697 8.47639C38.2368 8.19166 38.0423 7.94007 37.8001 7.73987C37.3083 7.29613 36.6673 7.05401 36.0049 7.06177C34.966 7.06177 34.1439 7.49997 33.5386 8.37639L31.9005 7.34479C32.8016 6.05097 34.135 5.40405 35.901 5.40405ZM33.4947 12.601C33.4934 12.8377 33.5488 13.0712 33.6561 13.2822C33.7634 13.4932 33.9195 13.6755 34.1115 13.8139C34.5229 14.1375 35.0334 14.3089 35.5567 14.2991C36.3415 14.2978 37.0939 13.9854 37.6488 13.4304C38.2649 12.8505 38.5729 12.1701 38.5729 11.3891C37.993 10.9271 37.1844 10.696 36.147 10.696C35.3915 10.696 34.7615 10.8782 34.2571 11.2424C33.7477 11.6121 33.4947 12.0615 33.4947 12.601Z" fill="#5F6368"/>
<path d="M50.5597 5.72754L44.3493 20H42.4294L44.734 15.0061L40.6504 5.72754H42.672L45.6235 12.8436H45.664L48.5346 5.72754H50.5597Z" fill="#5F6368"/>
<path d="M16.4988 8.50689C16.4995 7.94009 16.4515 7.37428 16.3555 6.81567H8.51172V10.019H13.0043C12.9124 10.5307 12.7178 11.0184 12.4323 11.4528C12.1468 11.8872 11.7763 12.2593 11.3431 12.5466V14.626H14.0243C15.5943 13.1785 16.4988 11.0379 16.4988 8.50689Z" fill="#4285F4"/>
<path d="M8.51149 16.6349C10.756 16.6349 12.646 15.8979 14.0241 14.6271L11.3429 12.5478C10.5966 13.0538 9.6355 13.3426 8.51149 13.3426C6.34202 13.3426 4.50063 11.8801 3.84216 9.9093H1.08008V12.0522C1.77235 13.4298 2.83388 14.5878 4.14615 15.397C5.45841 16.2062 6.96977 16.6348 8.51149 16.6349Z" fill="#34A853"/>
<path d="M3.84111 9.90928C3.493 8.87658 3.493 7.75824 3.84111 6.72554V4.58264H1.07902C0.496655 5.74149 0.193359 7.02046 0.193359 8.31741C0.193359 9.61435 0.496655 10.8933 1.07902 12.0522L3.84111 9.90928Z" fill="#FBBC04"/>
<path d="M8.51149 3.29238C9.69763 3.273 10.8438 3.72116 11.7022 4.54L14.0761 2.16606C12.5708 0.752181 10.5765 -0.0240621 8.51149 5.74211e-05C6.96977 0.000127686 5.45841 0.4287 4.14615 1.23793C2.83388 2.04716 1.77235 3.20519 1.08008 4.58274L3.84216 6.72564C4.50063 4.75487 6.34202 3.29238 8.51149 3.29238Z" fill="#EA4335"/>
</g>
<defs>
<clipPath id="clip0_2342_62039">
<rect width="50.3633" height="20" fill="white" transform="translate(0.193359)"/>
</clipPath>
</defs>
</svg>

<svg width="51" height="20" viewBox="0 0 51 20" fill="none" xmlns="http://www.w3.org/2000/svg"><g clip-path="url(#a)"><path d="M24.014 9.77v5.863h-1.86V1.155h4.933a4.46 4.46 0 0 1 3.194 1.254 4.028 4.028 0 0 1 1.334 3.055 4.012 4.012 0 0 1-1.334 3.073c-.862.822-1.927 1.233-3.194 1.232h-3.073v.002zm0-6.832v5.054h3.12a2.458 2.458 0 0 0 1.84-.749 2.468 2.468 0 0 0 0-3.538 2.426 2.426 0 0 0-1.84-.769h-3.12v.002zm11.887 2.466c1.375 0 2.46.367 3.255 1.102.796.735 1.193 1.742 1.193 3.022v6.105h-1.78V14.26h-.08c-.77 1.132-1.795 1.698-3.073 1.698-1.091 0-2.005-.324-2.74-.97a3.097 3.097 0 0 1-1.101-2.427c0-1.024.387-1.84 1.162-2.445.775-.605 1.809-.909 3.103-.91 1.104 0 2.014.202 2.728.606v-.425A2.117 2.117 0 0 0 37.8 7.74a2.634 2.634 0 0 0-1.795-.678c-1.039 0-1.861.438-2.466 1.314L31.9 7.345c.902-1.294 2.235-1.941 4.001-1.941zm-2.406 7.197a1.485 1.485 0 0 0 .617 1.213c.41.323.921.495 1.445.485a2.965 2.965 0 0 0 2.092-.869c.616-.58.924-1.26.924-2.04-.58-.463-1.389-.694-2.426-.694-.755 0-1.386.182-1.89.546-.51.37-.762.82-.762 1.359zM50.56 5.728L44.35 20h-1.92l2.304-4.994-4.084-9.278h2.022l2.952 7.116h.04l2.87-7.116h2.026z" fill="#5F6368"/><path d="M16.499 8.507c0-.567-.047-1.133-.143-1.691H8.511v3.203h4.492a3.85 3.85 0 0 1-1.66 2.528v2.079h2.68c1.57-1.447 2.475-3.588 2.475-6.12z" fill="#4285F4"/><path d="M8.511 16.635c2.245 0 4.135-.737 5.513-2.008l-2.681-2.08c-.746.507-1.707.796-2.832.796-2.169 0-4.01-1.463-4.669-3.434H1.08v2.143a8.317 8.317 0 0 0 7.431 4.583z" fill="#34A853"/><path d="M3.841 9.91a4.984 4.984 0 0 1 0-3.184V4.583H1.08a8.317 8.317 0 0 0 0 7.47l2.762-2.144z" fill="#FBBC04"/><path d="M8.511 3.292a4.516 4.516 0 0 1 3.191 1.248l2.374-2.374A7.992 7.992 0 0 0 8.511 0a8.317 8.317 0 0 0-7.43 4.583l2.761 2.143c.659-1.971 2.5-3.434 4.67-3.434z" fill="#EA4335"/></g><defs><clipPath id="a"><path fill="#fff" transform="translate(.193)" d="M0 0h50.363v20H0z"/></clipPath></defs></svg>
